coreui/free/cil-tag.svg

<svg xmlns="http://www.w3.org/2000/svg" viewBox="0 0 512 512">
  <path fill="var(--ci-primary-color, currentColor)" d="M485.887,263.261,248,25.373A31.791,31.791,0,0,0,225.373,16H64A48.055,48.055,0,0,0,16,64V225.078A32.115,32.115,0,0,0,26.091,248.4L279.152,486.125a23.815,23.815,0,0,0,16.41,6.51q.447,0,.9-.017a23.828,23.828,0,0,0,16.79-7.734L486.581,296.479A23.941,23.941,0,0,0,485.887,263.261ZM295.171,457.269,48,225.078V64A16.019,16.019,0,0,1,64,48H225.373L457.834,280.462Z" class="ci-primary"/>
  <path fill="var(--ci-primary-color, currentColor)" d="M148,96a52,52,0,1,0,52,52A52.059,52.059,0,0,0,148,96Zm0,72a20,20,0,1,1,20-20A20.023,20.023,0,0,1,148,168Z" class="ci-primary"/>
</svg>

<svg viewBox="0 0 512 512" xmlns="http://www.w3.org/2000/svg"><g><path d="M485.887 263.26L248 25.37v-.001c-5.99-6.03-14.14-9.4-22.63-9.38H63.99v0c-26.5.03-47.97 21.5-48 48v161.078 0c.01 8.83 3.66 17.26 10.09 23.32l253.06 237.725v0c4.43 4.19 10.3 6.52 16.41 6.51q.44 0 .9-.02v0c6.4-.22 12.46-3.01 16.79-7.74l173.32-188.41v0c8.74-9.46 8.43-24.14-.7-33.22Zm-190.716 194L48 225.069V63.99v-.001c.01-8.84 7.16-15.99 16-16h161.373l232.461 232.462Z"/><path d="M148 96v0c-28.72 0-52 23.28-52 52 0 28.71 23.28 52 52 52 28.71 0 52-23.29 52-52v0c-.04-28.71-23.3-51.97-52-52Zm0 72v0c-11.05 0-20-8.96-20-20 0-11.05 8.95-20 20-20 11.04 0 20 8.95 20 20v0c-.02 11.04-8.96 19.98-20 20Z"/></g></svg>
